src/assets/icons/stared.svg

<svg width="31" height="31" viewBox="0 0 31 31" fill="none" xmlns="http://www.w3.org/2000/svg">
<path d="M23.2778 28.9044C15.8747 33.1999 6.39117 30.6808 2.09563 23.2778C-2.19991 15.8747 0.319204 6.39117 7.72223 2.09563C15.1253 -2.19991 24.6088 0.319204 28.9044 7.72223C33.1999 15.1253 30.6808 24.6088 23.2778 28.9044Z" fill="#090C21"/>
<path d="M10.2871 23.4813C9.83266 23.7134 9.31814 23.3044 9.41074 22.7835L10.3961 17.2216L6.25874 13.2675C5.87236 12.8975 6.0746 12.2227 6.59343 12.1506L12.3559 11.3414L14.933 6.25614C15.1655 5.7978 15.7924 5.79882 16.0234 6.25792L18.5839 11.3516L24.3436 12.1796C24.8622 12.2534 25.0623 12.9289 24.6735 13.2976L20.5244 17.2382L21.4916 22.8033C21.5825 23.3245 21.0667 23.7318 20.613 23.4981L15.4526 20.8362L10.2871 23.4813Z" fill="white"/>
</svg>

<svg xmlns="http://www.w3.org/2000/svg" width="31" height="31" fill="none"><path fill="#090C21" d="M23.278 28.904C15.875 33.2 6.39 30.681 2.096 23.278-2.2 15.875.319 6.39 7.722 2.096 15.125-2.2 24.61.319 28.904 7.722c4.296 7.403 1.777 16.887-5.626 21.182"/><path fill="#fff" d="M10.287 23.481c-.454.232-.969-.177-.876-.698l.985-5.561-4.137-3.955c-.387-.37-.184-1.044.334-1.116l5.763-.81 2.577-5.085a.604.604 0 0 1 1.09.002l2.56 5.094 5.76.828c.52.073.72.749.33 1.118l-4.149 3.94.968 5.565c.09.521-.425.929-.879.695l-5.16-2.662z"/></svg>
